svg/fluentui-system-icons/ic_fluent_document_java_16_filled.svg

<svg width="16" height="16" viewBox="0 0 16 16" fill="none" xmlns="http://www.w3.org/2000/svg">
<path d="M8 1V4.5C8 5.32843 8.67157 6 9.5 6H13V9.02089C12.658 9.07858 12.35 9.25284 12.1251 9.50763C11.9497 9.30841 11.7193 9.15323 11.4474 9.06828C10.7956 8.86458 10.1094 9.12827 9.75 9.67014C9.39062 9.12827 8.70441 8.86458 8.05259 9.06828C7.78075 9.15323 7.55027 9.30841 7.3749 9.50763C7.09631 9.19203 6.6903 9 6.25 9C5.6487 9 5.11135 9.35815 4.87515 9.90004C4.64367 9.37031 4.11507 9.00012 3.5 9.00012C3.32468 9.00012 3.15639 9.0302 3 9.08547V2.5C3 1.67157 3.67157 1 4.5 1H8ZM9 1.25V4.5C9 4.77614 9.22386 5 9.5 5H12.75L9 1.25ZM10.2272 14.6493C10.162 14.858 9.96869 15.0001 9.75 15.0001C9.53131 15.0001 9.33799 14.858 9.27276 14.6493L8.02276 10.6493C7.94039 10.3857 8.08729 10.1053 8.35086 10.0229C8.61443 9.94053 8.89487 10.0874 8.97724 10.351L9.75 12.8238L10.5228 10.351C10.6051 10.0874 10.8856 9.94053 11.1491 10.0229C11.4127 10.1053 11.5596 10.3857 11.4772 10.6493L10.2272 14.6493ZM6.25 10.0001C6.46869 10.0001 6.66201 10.1423 6.72724 10.351L7.97724 14.351C8.05961 14.6146 7.91271 14.895 7.64914 14.9774C7.38556 15.0597 7.10513 14.9128 7.02276 14.6493L6.8199 14.0001H5.6801L5.47724 14.6493C5.39487 14.9128 5.11443 15.0597 4.85086 14.9774C4.58729 14.895 4.44039 14.6146 4.52276 14.351L5.77276 10.351C5.83799 10.1423 6.03131 10.0001 6.25 10.0001ZM6.5074 13.0001L6.25 12.1764L5.9926 13.0001H6.5074ZM3.5 10.0003C3.77614 10.0003 4 10.2241 4 10.5003V13.5003C4 14.3287 3.32843 15.0003 2.5 15.0003C1.67157 15.0003 1 14.3287 1 13.5003V13.0003C1 12.7241 1.22386 12.5003 1.5 12.5003C1.77614 12.5003 2 12.7241 2 13.0003V13.5003C2 13.7764 2.22386 14.0003 2.5 14.0003C2.77614 14.0003 3 13.7764 3 13.5003V10.5003C3 10.2241 3.22386 10.0003 3.5 10.0003ZM13.25 12.1764L13.5074 13.0001H12.9926L13.25 12.1764ZM12.4772 14.6493L12.6801 14.0001H13.8199L14.0228 14.6493C14.1051 14.9128 14.3856 15.0597 14.6491 14.9774C14.9127 14.895 15.0596 14.6146 14.9772 14.351L13.7272 10.351C13.662 10.1423 13.4687 10.0001 13.25 10.0001C13.0313 10.0001 12.838 10.1423 12.7728 10.351L11.5228 14.351C11.4404 14.6146 11.5873 14.895 11.8509 14.9774C12.1144 15.0597 12.3949 14.9128 12.4772 14.6493Z" fill="#212121"/>
</svg>

<svg xmlns="http://www.w3.org/2000/svg" width="16" height="16"><path d="M8 1v3.5A1.5 1.5 0 0 0 9.5 6H13v3.02a1.5 1.5 0 0 0-.875.488 1.5 1.5 0 0 0-2.375.163 1.5 1.5 0 0 0-2.375-.163 1.5 1.5 0 0 0-2.5.392A1.5 1.5 0 0 0 3 9.085V2.5A1.5 1.5 0 0 1 4.5 1H8Zm1 .25V4.5a.5.5 0 0 0 .5.5h3.25L9 1.25Zm1.227 13.4a.5.5 0 0 1-.954 0l-1.25-4a.5.5 0 0 1 .954-.299l.773 2.473.773-2.473a.5.5 0 1 1 .954.298l-1.25 4ZM6.25 10a.5.5 0 0 1 .477.351l1.25 4a.5.5 0 0 1-.954.298L6.82 14H5.68l-.203.65a.5.5 0 0 1-.954-.299l1.25-4a.5.5 0 0 1 .477-.35Zm.257 3-.257-.824-.257.824h.514ZM3.5 10a.5.5 0 0 1 .5.5v3a1.5 1.5 0 0 1-3 0V13a.5.5 0 1 1 1 0v.5a.5.5 0 0 0 1 0v-3a.5.5 0 0 1 .5-.5Zm9.75 2.176.257.824h-.514l.257-.824Zm-.773 2.473L12.68 14h1.14l.203.65a.5.5 0 0 0 .954-.299l-1.25-4a.5.5 0 0 0-.954 0l-1.25 4a.5.5 0 1 0 .954.298Z"/></svg>
